svg/static/bottom_left_corner.svg

<?xml version="1.0" encoding="UTF-8" standalone="no"?>
<svg
   width="200"
   height="200"
   viewBox="0 0 200 200"
   fill="none"
   version="1.1"
   id="svg7"
   sodipodi:docname="bottom_left_corner.svg"
   inkscape:version="1.3.2 (091e20ef0f, 2023-11-25)"
   xmlns:inkscape="http://www.inkscape.org/namespaces/inkscape"
   xmlns:sodipodi="http://sodipodi.sourceforge.net/DTD/sodipodi-0.dtd"
   xmlns:xlink="http://www.w3.org/1999/xlink"
   xmlns="http://www.w3.org/2000/svg"
   xmlns:svg="http://www.w3.org/2000/svg">
  <sodipodi:namedview
     id="namedview7"
     pagecolor="#ffffff"
     bordercolor="#000000"
     borderopacity="0.25"
     inkscape:showpageshadow="2"
     inkscape:pageopacity="0.0"
     inkscape:pagecheckerboard="0"
     inkscape:deskcolor="#d1d1d1"
     inkscape:zoom="5.485"
     inkscape:cx="100"
     inkscape:cy="100"
     inkscape:window-width="2560"
     inkscape:window-height="1363"
     inkscape:window-x="0"
     inkscape:window-y="0"
     inkscape:window-maximized="1"
     inkscape:current-layer="g3" />
  <g
     opacity="0.01"
     id="g1">
    <path
       opacity="0.01"
       d="M200 0H0V200H200V0Z"
       fill="#0000FF"
       id="path1" />
  </g>
  <g
     filter="url(#filter0_d)"
     id="g3">
    <path
       id="path141"
       style="display:inline;fill:url(#radialGradient142);fill-opacity:1"
       d="M 149.51562 43.75 C 144.37954 43.7573 139.24352 43.764184 134.10742 43.771484 C 123.54153 43.86882 112.96333 43.708487 102.40039 43.867188 C 102.32479 43.864388 102.24939 43.857889 102.17383 43.855469 C 101.1411 43.821839 100.10706 43.815921 99.074219 43.837891 C 98.33032 43.853717 97.589515 43.9212 96.847656 43.970703 C 96.845054 43.970776 96.842446 43.97063 96.839844 43.970703 C 96.638127 43.976377 96.436076 43.976417 96.234375 43.982422 C 95.884954 44.004445 95.537887 44.04116 95.189453 44.070312 C 94.43498 44.133438 93.682775 44.212571 92.933594 44.308594 C 92.863917 44.316876 92.794172 44.324617 92.724609 44.333984 C 90.944502 44.569479 89.184404 44.904235 87.443359 45.318359 C 87.399983 45.328677 87.357802 45.343094 87.314453 45.353516 C 87.306621 45.355383 87.298847 45.357505 87.291016 45.359375 C 84.938534 45.926265 82.627199 46.643766 80.373047 47.515625 C 80.367082 47.517932 80.361433 47.521128 80.355469 47.523438 C 80.334334 47.53167 80.312141 47.536661 80.291016 47.544922 C 79.946229 47.678897 79.607692 47.826013 79.265625 47.966797 C 78.845557 48.141276 78.419721 48.300311 78.003906 48.486328 C 77.589831 48.661239 77.193995 48.871328 76.785156 49.056641 C 76.458485 49.209792 76.130373 49.358235 75.806641 49.517578 C 70.906496 51.861828 66.414564 54.950585 62.431641 58.603516 C 62.364966 58.663888 62.298817 58.724478 62.232422 58.785156 C 61.389642 59.565509 60.562322 60.363101 59.767578 61.193359 C 60.41855 60.523812 61.089281 59.874052 61.771484 59.236328 C 61.088835 59.874147 60.41873 60.523629 59.767578 61.193359 C 59.765031 61.19602 59.762312 61.19851 59.759766 61.201172 C 59.57062 61.395788 59.375845 61.584016 59.189453 61.78125 C 59.040246 61.939136 58.901008 62.106133 58.757812 62.269531 C 58.536335 62.520537 58.312915 62.769746 58.091797 63.021484 C 53.194868 68.509158 49.328897 74.905036 46.958984 81.910156 C 46.865693 82.174511 46.781163 82.441412 46.691406 82.707031 C 46.661869 82.799262 46.628634 82.889995 46.599609 82.982422 C 46.548485 83.133811 46.514536 83.289624 46.464844 83.441406 C 46.134259 84.465633 45.821592 85.495074 45.550781 86.537109 C 45.405335 87.096277 45.292927 87.661555 45.166016 88.224609 C 44.989047 88.991381 44.81246 89.757976 44.671875 90.533203 C 44.54975 91.21385 44.468951 91.899563 44.373047 92.583984 C 44.27845 93.233451 44.173603 93.881198 44.105469 94.535156 C 44.079325 94.787538 44.06367 95.040273 44.041016 95.292969 C 43.973226 96.049163 43.886467 96.802465 43.851562 97.5625 C 43.850169 97.824207 43.850966 98.085948 43.849609 98.347656 C 43.849603 98.348958 43.849616 98.35026 43.849609 98.351562 C 43.819724 99.221968 43.831323 100.09201 43.841797 100.96289 C 43.841899 100.97135 43.841691 100.97982 43.841797 100.98828 C 43.773727 116.52182 43.791232 132.05765 43.751953 147.5918 C 42.989537 152.18596 46.333758 157.22397 51.283203 157.04883 C 66.979353 156.96225 82.690357 157.08707 98.382812 156.91797 C 98.386061 156.91809 98.389329 156.91785 98.392578 156.91797 C 100.13911 156.98143 101.8864 156.9611 103.63086 156.86523 C 103.71087 156.86435 103.79106 156.8646 103.87109 156.86328 C 104.91083 156.81035 105.94554 156.71527 106.97656 156.59961 C 106.98955 156.59815 107.00264 156.59717 107.01562 156.5957 C 107.03193 156.59382 107.04815 156.59174 107.06445 156.58984 C 107.67884 156.51838 108.28805 156.41028 108.89844 156.31055 C 109.75243 156.18236 110.6059 156.05676 111.45312 155.88867 C 112.20262 155.73997 112.94459 155.55513 113.6875 155.375 C 114.33462 155.2181 114.98179 155.06565 115.62305 154.88477 C 116.19057 154.72468 116.75017 154.53638 117.3125 154.35742 C 118.08112 154.11281 118.84778 153.866 119.60547 153.58594 C 119.66734 153.56307 119.72739 153.53514 119.78906 153.51172 C 120.31027 153.31369 120.82521 153.10109 121.3418 152.89062 C 121.82403 152.69241 122.31622 152.52363 122.79297 152.31055 C 123.01344 152.21741 123.22241 152.10195 123.44141 152.00586 C 123.67912 151.90155 123.9121 151.78839 124.14648 151.67773 C 130.17852 148.92285 135.62349 145.05365 140.27344 140.375 C 140.57619 140.07038 140.87989 139.76641 141.17578 139.45508 C 141.61599 138.99191 142.04991 138.5244 142.47461 138.04688 C 143.14251 137.29591 143.80727 136.54246 144.43555 135.75781 C 144.44223 135.74947 144.4484 135.74077 144.45508 135.73242 C 144.45882 135.72774 144.46306 135.72343 144.4668 135.71875 C 144.46916 135.7158 144.4703 135.71194 144.47266 135.70898 C 145.17507 134.82985 145.84155 133.92411 146.49219 133.00586 C 145.84221 133.92398 145.1749 134.83006 144.47266 135.70898 C 148.48811 130.75625 151.70006 125.15591 153.76953 119.08008 C 153.77753 119.05678 153.78457 119.03307 153.79297 119.00977 C 153.46798 119.91944 153.11265 120.81692 152.74219 121.70898 C 153.11297 120.81715 153.46804 119.91928 153.79297 119.00977 C 154.13412 118.05486 154.43166 117.0854 154.7207 116.11328 C 154.8233 115.76824 154.94512 115.42904 155.04102 115.08203 C 156.10635 111.2268 156.76256 107.25497 156.94727 103.23438 C 156.95139 102.46424 156.94951 101.69398 156.95312 100.92383 C 156.95483 100.53972 156.95616 100.1556 156.95703 99.771484 C 157.02518 84.250431 157.00574 68.726677 157.04492 53.205078 C 157.80728 48.610995 154.46511 43.575072 149.51562 43.75 z M 75.769531 49.537109 C 74.867387 49.981973 73.97936 50.457455 73.101562 50.949219 C 73.979368 50.457182 74.867078 49.982132 75.769531 49.537109 z M 71.876953 51.654297 C 70.995733 52.176664 70.126099 52.716864 69.273438 53.285156 C 70.125529 52.716718 70.996166 52.176775 71.876953 51.654297 z M 68.140625 54.074219 C 67.547099 54.490374 66.962507 54.919492 66.384766 55.357422 C 66.962443 54.919095 67.547145 54.490746 68.140625 54.074219 z M 64.820312 56.582031 C 64.205003 57.082135 63.600384 57.594524 63.005859 58.119141 C 63.60026 57.594237 64.205203 57.082432 64.820312 56.582031 z M 45.097656 112.23828 C 45.120639 112.34646 45.14437 112.45446 45.167969 112.5625 C 45.144467 112.4544 45.120543 112.34651 45.097656 112.23828 z M 47.306641 119.96484 C 47.443051 120.34105 47.580417 120.71659 47.724609 121.08984 C 47.580849 120.71641 47.442618 120.34124 47.306641 119.96484 z M 152.21875 122.92773 C 151.81529 123.83957 151.39722 124.7449 150.94727 125.63477 C 151.39802 124.74498 151.8147 123.83953 152.21875 122.92773 z M 48.509766 123.0332 C 48.708142 123.49574 48.922309 123.95112 49.132812 124.4082 C 48.922777 123.95075 48.707655 123.49612 48.509766 123.0332 z M 150.50977 126.45703 C 150.10756 127.22181 149.68779 127.97646 149.25195 128.72266 C 149.68819 127.97707 150.10712 127.22118 150.50977 126.45703 z M 50.419922 127.0332 C 50.735047 127.63378 51.051978 128.23354 51.388672 128.82227 C 51.052472 128.23304 50.734488 127.6343 50.419922 127.0332 z M 148.74023 129.5957 C 148.18745 130.5055 147.60569 131.39714 147.00391 132.27539 C 147.60595 131.39768 148.18692 130.50489 148.74023 129.5957 z M 52.15625 130.11719 C 52.566518 130.79148 52.992661 131.45516 53.431641 132.11133 C 52.993261 131.45486 52.565822 130.79179 52.15625 130.11719 z M 54.0625 133.05664 C 54.716392 133.99126 55.396701 134.90673 56.109375 135.79883 C 55.397377 134.90648 54.715471 133.99153 54.0625 133.05664 z M 56.712891 136.52148 C 57.295738 137.22516 57.897843 137.91442 58.517578 138.58789 C 57.897672 137.91379 57.295658 137.22584 56.712891 136.52148 z M 59.238281 139.36328 C 60.064232 140.225 60.90957 141.06989 61.796875 141.875 C 62.675734 142.71445 63.592935 143.50731 64.525391 144.2793 C 63.592831 143.50746 62.675817 142.71452 61.796875 141.875 C 60.909477 141.0698 60.063922 140.22511 59.238281 139.36328 z M 65.175781 144.81445 C 66.081828 145.54011 67.008931 146.23767 67.958984 146.90039 C 67.008424 146.23778 66.082285 145.54022 65.175781 144.81445 z M 68.582031 147.31836 C 69.440889 147.89961 70.314876 148.45617 71.205078 148.98633 C 70.31446 148.45647 69.441276 147.89944 68.582031 147.31836 z M 71.785156 149.33789 C 72.755617 149.89955 73.747306 150.42271 74.75 150.92383 C 73.747575 150.42349 72.755367 149.8988 71.785156 149.33789 z M 75.740234 151.4043 C 76.733539 151.87637 77.736418 152.32915 78.755859 152.74219 C 77.735828 152.3296 76.734102 151.876 75.740234 151.4043 z M 79.589844 153.05859 C 80.408856 153.37551 81.235402 153.67035 82.068359 153.94922 C 81.235258 153.67083 80.408999 153.37502 79.589844 153.05859 z M 83.242188 154.33594 C 84.221743 154.64061 85.210431 154.91774 86.205078 155.16992 C 85.210326 154.91824 84.22185 154.64006 83.242188 154.33594 z M 87.59375 155.49609 C 88.307607 155.65853 89.024585 155.80599 89.744141 155.94141 C 89.024186 155.80623 88.308002 155.65828 87.59375 155.49609 z M 91.746094 156.28125 C 92.459289 156.38989 93.173891 156.4882 93.890625 156.57031 C 93.174102 156.4884 92.459084 156.38962 91.746094 156.28125 z M 95.556641 156.74023 C 96.457147 156.81722 97.358714 156.8753 98.261719 156.91016 C 97.358574 156.8753 96.457292 156.8171 95.556641 156.74023 z " />
  </g>
  <defs
     id="defs7">
    <linearGradient
       id="linearGradient141"
       inkscape:collect="always">
      <stop
         style="stop-color:#ff8000;stop-opacity:0;"
         offset="0.04099088"
         id="stop142" />
      <stop
         style="stop-color:#ff8000;stop-opacity:1;"
         offset="1"
         id="stop141" />
    </linearGradient>
    <filter
       id="filter0_d"
       x="31.7495"
       y="33.7495"
       width="137.299"
       height="137.299"
       filterUnits="userSpaceOnUse"
       color-interpolation-filters="sRGB">
      <feFlood
         flood-opacity="0"
         result="BackgroundImageFix"
         id="feFlood5" />
      <feColorMatrix
         in="SourceAlpha"
         type="matrix"
         values="0 0 0 0 0 0 0 0 0 0 0 0 0 0 0 0 0 0 127 0"
         id="feColorMatrix5" />
      <feMorphology
         radius="2"
         operator="dilate"
         in="SourceAlpha"
         result="effect1_dropShadow"
         id="feMorphology5" />
      <feOffset
         dy="2"
         id="feOffset5" />
      <feGaussianBlur
         stdDeviation="5"
         id="feGaussianBlur5" />
      <feColorMatrix
         type="matrix"
         values="0 0 0 0 0 0 0 0 0 0 0 0 0 0 0 0 0 0 0.25 0"
         id="feColorMatrix6" />
      <feBlend
         mode="normal"
         in2="BackgroundImageFix"
         result="effect1_dropShadow"
         id="feBlend6" />
      <feBlend
         mode="normal"
         in="SourceGraphic"
         in2="effect1_dropShadow"
         result="shape"
         id="feBlend7" />
    </filter>
    <radialGradient
       inkscape:collect="always"
       xlink:href="#linearGradient141"
       id="radialGradient142"
       cx="100.3985"
       cy="100.39942"
       fx="100.3985"
       fy="100.39942"
       r="56.754753"
       gradientTransform="matrix(2.0261913,0,1.6987172e-6,2.022589,-103.02828,-102.66735)"
       gradientUnits="userSpaceOnUse" />
  </defs>
</svg>

<?xml version="1.0" encoding="UTF-8" standalone="no"?>
<svg
   width="200"
   height="200"
   viewBox="0 0 200 200"
   fill="none"
   version="1.1"
   id="svg7"
   sodipodi:docname="bottom_left_corner.svg"
   inkscape:version="1.3.2 (091e20ef0f, 2023-11-25)"
   xmlns:inkscape="http://www.inkscape.org/namespaces/inkscape"
   xmlns:sodipodi="http://sodipodi.sourceforge.net/DTD/sodipodi-0.dtd"
   xmlns:xlink="http://www.w3.org/1999/xlink"
   xmlns="http://www.w3.org/2000/svg"
   xmlns:svg="http://www.w3.org/2000/svg">
  <sodipodi:namedview
     id="namedview7"
     pagecolor="#ffffff"
     bordercolor="#000000"
     borderopacity="0.25"
     inkscape:showpageshadow="2"
     inkscape:pageopacity="0.0"
     inkscape:pagecheckerboard="0"
     inkscape:deskcolor="#d1d1d1"
     inkscape:zoom="5.485"
     inkscape:cx="100"
     inkscape:cy="100"
     inkscape:window-width="2560"
     inkscape:window-height="1363"
     inkscape:window-x="0"
     inkscape:window-y="0"
     inkscape:window-maximized="1"
     inkscape:current-layer="g3" />
  <g
     opacity="0.01"
     id="g1">
    <path
       opacity="0.01"
       d="M200 0H0V200H200V0Z"
       fill="#0000FF"
       id="path1" />
  </g>
  <g
     filter="url(#filter0_d)"
     id="g3">
    <path
       id="path141"
       style="display:inline;fill:url(#radialGradient142);fill-opacity:1"
       d="m 149.51567,43.749369 c -5.13608,0.007 -10.2721,0.0142 -15.4082,0.0215 -10.56589,0.0973 -21.14409,-0.063 -31.70703,0.0957 -0.0756,-0.003 -0.151,-0.009 -0.22656,-0.0117 -1.03273,-0.0336 -2.06676,-0.0395 -3.099618,-0.0176 -0.74389,0.0158 -1.4847,0.0833 -2.22656,0.13281 -0.003,8e-5 -0.005,-7e-5 -0.008,0 -0.20172,0.006 -0.40377,0.006 -0.60547,0.0117 -0.34942,0.022 -0.69649,0.0587 -1.04492,0.0879 -0.75447,0.0631 -1.50668,0.14226 -2.25586,0.23829 -0.0697,0.008 -0.13942,0.016 -0.20899,0.0254 -1.7801,0.23549 -3.5402,0.57025 -5.28125,0.98437 -0.0434,0.0103 -0.0856,0.0247 -0.1289,0.0352 -0.008,0.002 -0.0156,0.004 -0.0234,0.006 -2.35248,0.56689 -4.66382,1.28439 -6.91797,2.15625 -0.006,0.002 -0.0116,0.006 -0.0176,0.008 -0.0211,0.008 -0.0433,0.0132 -0.0645,0.0215 -0.34479,0.13398 -0.68332,0.28109 -1.02539,0.42188 -0.42007,0.17447 -0.8459,0.33351 -1.26172,0.51953 -0.41407,0.17491 -0.80991,0.385 -1.21875,0.57031 -0.32667,0.15315 -0.65478,0.30159 -0.97851,0.46094 -4.90015,2.34425 -9.39208,5.433 -13.375,9.08593 -0.0667,0.0604 -0.13283,0.12097 -0.19922,0.18164 -0.84278,0.78036 -1.6701,1.57795 -2.46485,2.40821 0.65098,-0.66955 1.32171,-1.31931 2.00391,-1.95703 -0.68265,0.63782 -1.35275,1.2873 -2.00391,1.95703 -0.003,0.003 -0.005,0.005 -0.008,0.008 -0.18914,0.19461 -0.38392,0.38284 -0.57031,0.58008 -0.14921,0.15788 -0.28845,0.32488 -0.43164,0.48828 -0.22148,0.251 -0.4449,0.50021 -0.66602,0.75195 -4.89693,5.48767 -8.7629,11.88355 -11.13281,18.88867 -0.0933,0.26436 -0.17782,0.53126 -0.26758,0.79688 -0.0295,0.0922 -0.0628,0.18296 -0.0918,0.27539 -0.0511,0.15139 -0.0851,0.3072 -0.13476,0.45898 -0.33059,1.02423 -0.64325,2.05367 -0.91406,3.0957 -0.14545,0.55917 -0.25786,1.12445 -0.38477,1.6875 -0.17697,0.76678 -0.35355,1.53337 -0.49414,2.3086 -0.12212,0.68065 -0.20292,1.36636 -0.29883,2.05078 -0.0946,0.64947 -0.19944,1.29721 -0.26758,1.95117 -0.0261,0.25238 -0.0418,0.50512 -0.0644,0.75781 -0.0678,0.7562 -0.15455,1.5095 -0.18945,2.26954 -0.001,0.2617 -6e-4,0.52344 -0.002,0.78515 0,10e-4 1e-5,0.003 0,0.004 -0.0299,0.87041 -0.0183,1.740451 -0.008,2.611341 1e-4,0.008 -10e-5,0.0169 0,0.0254 -0.0681,15.53354 -0.0506,31.06937 -0.0898,46.60352 -0.76242,4.59416 2.5818,9.63217 7.53125,9.45703 15.69615,-0.0866 31.40715,0.0382 47.09961,-0.13086 0.003,1.2e-4 0.007,-1.2e-4 0.01,0 1.746548,0.0635 3.493828,0.0431 5.238288,-0.0527 0.08,-8.8e-4 0.1602,-6.3e-4 0.24023,-0.002 1.03974,-0.0529 2.07445,-0.14801 3.10547,-0.26367 0.013,-0.001 0.0261,-0.002 0.0391,-0.004 0.0163,-0.002 0.0325,-0.004 0.0488,-0.006 0.61439,-0.0715 1.2236,-0.17956 1.83399,-0.27929 0.85399,-0.12819 1.70746,-0.25379 2.55468,-0.42188 0.7495,-0.1487 1.49147,-0.33354 2.23438,-0.51367 0.64712,-0.1569 1.29429,-0.30935 1.93555,-0.49023 0.56752,-0.16009 1.12712,-0.34839 1.68945,-0.52735 0.76862,-0.24461 1.53528,-0.49142 2.29297,-0.77148 0.0619,-0.0229 0.12192,-0.0508 0.18359,-0.0742 0.52121,-0.19803 1.03615,-0.41063 1.55274,-0.6211 0.48223,-0.19821 0.97442,-0.36699 1.45117,-0.58007 0.22047,-0.0931 0.42944,-0.2086 0.64844,-0.30469 0.23771,-0.10431 0.47069,-0.21747 0.70507,-0.32813 6.03204,-2.75488 11.47701,-6.62408 16.12696,-11.30273 0.30275,-0.30462 0.60645,-0.60859 0.90234,-0.91992 0.44021,-0.46317 0.87413,-0.93068 1.29883,-1.4082 0.6679,-0.75097 1.33266,-1.50442 1.96094,-2.28907 0.007,-0.008 0.0129,-0.017 0.0195,-0.0254 0.004,-0.005 0.008,-0.009 0.0117,-0.0137 0.002,-0.003 0.004,-0.007 0.006,-0.01 0.70241,-0.87913 1.36889,-1.78487 2.01953,-2.70312 -0.64998,0.91812 -1.31729,1.8242 -2.01953,2.70312 4.01545,-4.95273 7.2274,-10.55307 9.29687,-16.6289 0.008,-0.0233 0.015,-0.047 0.0234,-0.0703 -0.32499,0.90967 -0.68032,1.80715 -1.05078,2.69921 0.37078,-0.89183 0.72585,-1.7897 1.05078,-2.69921 0.34115,-0.95491 0.63869,-1.92437 0.92773,-2.89649 0.1026,-0.34504 0.22442,-0.68424 0.32032,-1.03125 1.06533,-3.85523 1.72154,-7.82706 1.90625,-11.84765 0.004,-0.77014 0.002,-1.5404 0.006,-2.31055 0.002,-0.38412 0.003,-0.76824 0.004,-1.152361 0.0682,-15.52105 0.0487,-31.0448 0.0879,-46.5664 0.76236,-4.59409 -2.57981,-9.63001 -7.5293,-9.45508 z m -73.746088,5.78711 c -0.90215,0.44486 -1.79017,0.92035 -2.66797,1.41211 0.8778,-0.49204 1.76551,-0.96709 2.66797,-1.41211 z m -3.89258,2.11719 c -0.88122,0.52237 -1.75086,1.06257 -2.60352,1.63086 0.85209,-0.56844 1.72273,-1.10838 2.60352,-1.63086 z m -3.73633,2.41992 c -0.59353,0.41616 -1.17812,0.84527 -1.75586,1.2832 0.57768,-0.43832 1.16238,-0.86667 1.75586,-1.2832 z m -3.32031,2.50781 c -0.61531,0.50011 -1.21993,1.0125 -1.81446,1.53711 0.59441,-0.5249 1.19935,-1.03671 1.81446,-1.53711 z m -19.72266,55.656261 c 0.023,0.10818 0.0467,0.21618 0.0703,0.32422 -0.0235,-0.1081 -0.0474,-0.21599 -0.0703,-0.32422 z m 2.20899,7.72656 c 0.13641,0.37621 0.27377,0.75175 0.41796,1.125 -0.14376,-0.37343 -0.28199,-0.7486 -0.41796,-1.125 z m 104.912108,2.96289 c -0.40346,0.91184 -0.82153,1.81717 -1.27148,2.70704 0.45075,-0.88979 0.86743,-1.79524 1.27148,-2.70704 z m -103.708988,0.10547 c 0.19838,0.46254 0.41254,0.91792 0.62305,1.375 -0.21004,-0.45745 -0.42516,-0.91208 -0.62305,-1.375 z m 102.000008,3.42383 c -0.40221,0.76478 -0.82198,1.51943 -1.25782,2.26563 0.43624,-0.74559 0.85517,-1.50148 1.25782,-2.26563 z m -100.089848,0.57617 c 0.31512,0.60058 0.63205,1.20034 0.96875,1.78907 -0.3362,-0.58923 -0.65419,-1.18797 -0.96875,-1.78907 z m 98.320308,2.5625 c -0.55278,0.9098 -1.13454,1.80144 -1.73632,2.67969 0.60204,-0.87771 1.18301,-1.7705 1.73632,-2.67969 z m -96.583978,0.52149 c 0.41026,0.67429 0.83641,1.33797 1.27539,1.99414 -0.43838,-0.65647 -0.86582,-1.31954 -1.27539,-1.99414 z m 1.90625,2.93945 c 0.65389,0.93462 1.3342,1.85009 2.04687,2.74219 -0.712,-0.89235 -1.3939,-1.8073 -2.04687,-2.74219 z m 2.65039,3.46484 c 0.58284,0.70368 1.18495,1.39294 1.80468,2.06641 -0.6199,-0.6741 -1.22192,-1.36205 -1.80468,-2.06641 z m 2.52539,2.8418 c 0.82595,0.86172 1.67129,1.70661 2.55859,2.51172 0.87886,0.83945 1.79606,1.63231 2.72852,2.4043 -0.93256,-0.77184 -1.84958,-1.56478 -2.72852,-2.4043 -0.8874,-0.8052 -1.73295,-1.64989 -2.55859,-2.51172 z m 5.9375,5.45117 c 0.90604,0.72566 1.83315,1.42322 2.7832,2.08594 -0.95056,-0.66261 -1.8767,-1.36017 -2.7832,-2.08594 z m 3.40625,2.50391 c 0.85885,0.58125 1.73284,1.13781 2.62304,1.66797 -0.89061,-0.52986 -1.7638,-1.08689 -2.62304,-1.66797 z m 3.20312,2.01953 c 0.97046,0.56166 1.96215,1.08482 2.96485,1.58594 -1.00243,-0.50034 -1.99464,-1.02503 -2.96485,-1.58594 z m 3.95508,2.06641 c 0.9933,0.47207 1.99618,0.92485 3.01562,1.33789 -1.02003,-0.41259 -2.02175,-0.86619 -3.01562,-1.33789 z m 3.84961,1.65429 c 0.81901,0.31692 1.64556,0.61176 2.47851,0.89063 -0.8331,-0.27839 -1.65936,-0.5742 -2.47851,-0.89063 z m 3.65234,1.27735 c 0.97956,0.30467 1.96825,0.5818 2.96289,0.83398 -0.99475,-0.25168 -1.98322,-0.52986 -2.96289,-0.83398 z m 4.35157,1.16015 c 0.71385,0.16244 1.43083,0.3099 2.15039,0.44532 -0.71996,-0.13518 -1.43614,-0.28313 -2.15039,-0.44532 z m 4.15234,0.78516 c 0.71319,0.10864 1.4278,0.20695 2.14453,0.28906 -0.71652,-0.0819 -1.43154,-0.18069 -2.14453,-0.28906 z m 3.81055,0.45898 c 0.9005,0.077 1.80207,0.13507 2.70507,0.16993 -0.90314,-0.0349 -1.80442,-0.0931 -2.70507,-0.16993 z" />
  </g>
  <defs
     id="defs7">
    <linearGradient
       id="linearGradient141"
       inkscape:collect="always">
      <stop
         style="stop-color:#ff8000;stop-opacity:0;"
         offset="0.04099088"
         id="stop142" />
      <stop
         style="stop-color:#ff8000;stop-opacity:1;"
         offset="0.64504218"
         id="stop1" />
      <stop
         style="stop-color:#ff8000;stop-opacity:1;"
         offset="1"
         id="stop141" />
    </linearGradient>
    <filter
       id="filter0_d"
       x="31.7495"
       y="33.7495"
       width="137.299"
       height="137.299"
       filterUnits="userSpaceOnUse"
       color-interpolation-filters="sRGB">
      <feFlood
         flood-opacity="0"
         result="BackgroundImageFix"
         id="feFlood5" />
      <feColorMatrix
         in="SourceAlpha"
         type="matrix"
         values="0 0 0 0 0 0 0 0 0 0 0 0 0 0 0 0 0 0 127 0"
         id="feColorMatrix5" />
      <feMorphology
         radius="2"
         operator="dilate"
         in="SourceAlpha"
         result="effect1_dropShadow"
         id="feMorphology5" />
      <feOffset
         dy="2"
         id="feOffset5" />
      <feGaussianBlur
         stdDeviation="5"
         id="feGaussianBlur5" />
      <feColorMatrix
         type="matrix"
         values="0 0 0 0 0 0 0 0 0 0 0 0 0 0 0 0 0 0 0.25 0"
         id="feColorMatrix6" />
      <feBlend
         mode="normal"
         in2="BackgroundImageFix"
         result="effect1_dropShadow"
         id="feBlend6" />
      <feBlend
         mode="normal"
         in="SourceGraphic"
         in2="effect1_dropShadow"
         result="shape"
         id="feBlend7" />
    </filter>
    <radialGradient
       inkscape:collect="always"
       xlink:href="#linearGradient141"
       id="radialGradient142"
       cx="100.3985"
       cy="100.39942"
       fx="100.3985"
       fy="100.39942"
       r="56.754753"
       gradientTransform="matrix(2.0261913,0,1.6987172e-6,2.022589,-103.02822,-102.66797)"
       gradientUnits="userSpaceOnUse" />
  </defs>
</svg>
